X:1
T:Title
%%score 1 2 3
L:1/8
M:6/4
K:C
V:1 treble nm="Part_1"
V:2 treble nm="Part_2"
V:3 treble-8 nm="Part_3"
V:1
 G12 | G4 F2 E4 D2 | ^F12 | G12 | G6 A4 B2 | A12 | z12 | A6 B6 | c12 | c4 B2 A4 B2 | c12 | d6 c6 | %12
 B6 A4 G2 | B6 G6 | A6 ^F6 | G12 | G6 A4 B2 | c4 B2 A4 B2 | G12 | d6 c6 | B4 A2 B4 G2 | A12 | z12 | %23
 B12 | c6 B6 | c6 A6 | G6 E6 | ^F12 | F6 E4 F2 | G12 | z12 | d12 | d6 c4 B2 | A6 G6 | ^F12 | %35
 A4 B2 c4 A2 | B12 | G4 A2 B4 G2 | A12 | F12 | z12 | c12 | c4 B2 A4 B2 | c12 | d12 | c6 B6 | %46
 A6 G4 F2 | G12 | B6 c6 | B4 A2 B4 G2 | A12 | G12 | z12 | G4 A2 B4 G2 | A12 | A6 A4 G2 | A12 | %57
 G12 | z12 | d6 B6 | A6 G4 F2 | E6 F6 | G12 | B6 c4 d2 | B6 A4 G2 | B6 c6 | A6 E6 | ^F12 | G12 | %69
 A12 | z12 | c6 B6 | A12 | G6 F6 | E12 | c4 B2 A4 B2 | c12 | d12 | ^c6 B6 | A6 ^F6 | G12 | A12- | %82
 A12 | c6 B6 | B6 G6 | B6 c6 | d4 A2 B4 B2 | A12 | z12 | F6 D6 | G6 A6 | B6 c6 | A4 G2 A4 F2 | %93
 G12 |] %94
V:2
 D12 | B,12 | ^C12 | D12- | D12 | F12 | E12- | E12 | z12 | G12- | G12 | D6 E6 | D12- | D12 | ^C12 | %15
 D12- | D12 | F12 | D12- | D12 | D12 | D12- | D12 | E12 | F12- | F12 | z12 | ^C12- | C12 | D12 | %30
 G12- | G12 | D12 | E6 D6 | ^C12 | A,12 | D12 | D12 | F12 | C12 | E12 | G12 | G6 A6 | G12 | D12 | %45
 E12- | E12 | E6 D4 C2 | D12- | D12 | z12 | D12 | G12 | D12 | D12- | D12 | F6 E6 | D12- | D12 | %59
 G12 | E6 D6 | C12 | D12 | D12- | D12 | z12 | E6 D6 | ^C12 | D12 | F12- | F12 | C6 D6 | E12- | %73
 E12 | G12 | G12- | G12 | ^F6 E4 D2 | ^C12- | C12 | D6 E6 | F12- | F12 | C12 | D12- | D12 | D12 | %87
 D12- | D12 | C12 | D12- | D12 | E6 C6 | D12 |] %94
V:3
 G12- | G12 | A12 | G12- | G12 | F12 | A12- | A12 | c12 | c12- | c12 | z12 | B12- | B12 | A12 | %15
 G12- | G12 | F12 | G12- | G12 | G12 | D12- | D12 | z12 | F12- | F12 | G12 | A12- | A12 | G12 | %30
 G12- | G12 | G12 | A12- | A12 | z12 | G12- | G12 | F12 | A12- | A12 | c12 | c12- | c12 | B12 | %45
 A12- | A12 | z12 | G12- | G12 | F12 | G12- | G12 | G12 | D12- | D12 | F12 | G12- | G12 | z12 | %60
 A12- | A12 | G12 | G12- | G12 | G12 | A12- | A12 | G12 | F12- | F12 | z12 | A12 | c12- | c12 | %75
 c12- | c12 | B12 | A12- | A12 | G12 | F12- | F12 | z12 | G12- | G12 | G12 | D12- | D12 | F12 | %90
 G12- | G12 | A12 | G12 |] %94

